img/redes/youtube-p.svg

<svg width="32" height="32" viewBox="0 0 32 32" fill="none" xmlns="http://www.w3.org/2000/svg">
<path d="M31.33 8.24805C31.1494 7.56723 30.7931 6.9458 30.2967 6.44598C29.8004 5.94616 29.1815 5.58548 28.502 5.40005C26.007 4.72705 16 4.72705 16 4.72705C16 4.72705 5.993 4.72705 3.497 5.40005C2.81774 5.58582 2.19915 5.94662 1.70305 6.44641C1.20695 6.94619 0.850732 7.56744 0.67 8.24805C0 10.7601 0 16.0001 0 16.0001C0 16.0001 0 21.2401 0.67 23.7521C0.850542 24.4329 1.20682 25.0544 1.70315 25.5542C2.19947 26.0541 2.81842 26.4147 3.498 26.6001C5.992 27.2731 15.999 27.2731 15.999 27.2731C15.999 27.2731 26.006 27.2731 28.502 26.6001C29.1818 26.4149 29.8009 26.0543 30.2974 25.5544C30.7939 25.0546 31.1504 24.433 31.331 23.7521C32 21.2401 32 16.0001 32 16.0001C32 16.0001 32 10.7601 31.33 8.24805ZM12.727 20.758V11.2431L21.09 16.0001L12.726 20.757L12.727 20.758Z" fill="url(#paint0_linear_144_70)"/>
<defs>
<linearGradient id="paint0_linear_144_70" x1="16" y1="4.72705" x2="16" y2="27.2731" gradientUnits="userSpaceOnUse">
<stop stop-color="#AC62CB"/>
<stop offset="1" stop-color="#75268B"/>
</linearGradient>
</defs>
</svg>

<svg width="32" height="32" fill="none" xmlns="http://www.w3.org/2000/svg">
  <path d="M31.33 8.248A4.021 4.021 0 0 0 28.502 5.4C26.007 4.727 16 4.727 16 4.727s-10.007 0-12.503.673A4.023 4.023 0 0 0 .67 8.248C0 10.76 0 16 0 16s0 5.24.67 7.752A4.02 4.02 0 0 0 3.498 26.6c2.494.673 12.501.673 12.501.673s10.007 0 12.503-.673a4.02 4.02 0 0 0 2.829-2.848C32 21.24 32 16 32 16s0-5.24-.67-7.752Zm-18.603 12.51v-9.515L21.09 16l-8.364 4.757Z" fill="url(#a)"/>
  <defs>
    <linearGradient id="a" x1="16" y1="4.727" x2="16" y2="27.273" gradientUnits="userSpaceOnUse">
      <stop stop-color="#FFBF00"/>
      <stop offset="1" stop-color="#F2A50C"/>
    </linearGradient>
  </defs>
</svg>
